src/assets/images/about-wave.svg

<svg viewBox="0 0 1440 320" xmlns="http://www.w3.org/2000/svg"><path d="m0 160 48 10.7c48 10.3 144 32.3 240 42.6 96 10.7 192 10.7 288-10.6 96-21.7 192-63.7 288-85.4 96-21.3 192-21.3 288 0 96 21.7 192 63.7 240 85.4l48 21.3v96h-48c-48 0-144 0-240 0s-192 0-288 0-192 0-288 0-192 0-288 0-192 0-240 0h-48z" fill="#ff5722" fill-opacity=".9"/></svg>

<?xml version="1.0" standalone="no"?><svg xmlns="http://www.w3.org/2000/svg" viewBox="0 0 1440 320"><path fill="#ff5722" fill-opacity="0.9" d="M0,160L48,170.7C96,181,192,203,288,213.3C384,224,480,224,576,202.7C672,181,768,139,864,117.3C960,96,1056,96,1152,117.3C1248,139,1344,181,1392,202.7L1440,224L1440,320L1392,320C1344,320,1248,320,1152,320C1056,320,960,320,864,320C768,320,672,320,576,320C480,320,384,320,288,320C192,320,96,320,48,320L0,320Z"></path></svg>
